img/svgicons/man-user.svg

<svg width="11" height="11" viewBox="0 0 11 11" fill="none" xmlns="http://www.w3.org/2000/svg">
<path d="M5.50001 5.37972C6.72303 5.37972 7.71457 4.17544 7.71457 2.68988C7.71457 1.20428 7.38903 0 5.50001 0C3.611 0 3.2854 1.20428 3.2854 2.68988C3.2854 4.17544 4.27694 5.37972 5.50001 5.37972Z" fill="#93B474"/>
<path d="M1.31709 9.4868C1.31633 9.46128 1.31671 9.39622 1.31709 9.4868V9.4868Z" fill="#93B474"/>
<path d="M9.68262 9.55756C9.68303 9.38552 9.68381 9.53276 9.68262 9.55756V9.55756Z" fill="#93B474"/>
<path d="M9.67799 9.3782C9.63698 6.79031 9.29899 6.0529 6.71264 5.58612C6.71264 5.58612 6.34857 6.05004 5.5 6.05004C4.65143 6.05004 4.2873 5.58612 4.2873 5.58612C1.72917 6.04781 1.37063 6.77428 1.32349 9.29412C1.31962 9.49989 1.31783 9.5107 1.31714 9.48681C1.3173 9.53157 1.31748 9.61435 1.31748 9.7587C1.31748 9.7587 1.93323 11 5.5 11C9.0667 11 9.68252 9.7587 9.68252 9.7587C9.68252 9.66596 9.68258 9.60147 9.68267 9.55759C9.68198 9.57236 9.6806 9.54373 9.67799 9.3782Z" fill="#93B474"/>
</svg>

<svg width="11" height="11" fill="none" xmlns="http://www.w3.org/2000/svg"><path d="M5.5 5.38c1.223 0 2.215-1.205 2.215-2.69C7.715 1.204 7.389 0 5.5 0 3.611 0 3.285 1.204 3.285 2.69c0 1.485.992 2.69 2.215 2.69ZM1.317 9.487c0-.026 0-.09 0 0ZM9.683 9.558c0-.172 0-.025 0 0ZM9.678 9.378c-.041-2.588-.379-3.325-2.965-3.792 0 0-.364.464-1.213.464-.849 0-1.213-.464-1.213-.464-2.558.462-2.916 1.188-2.964 3.708-.003.206-.005.217-.006.193v.272S1.933 11 5.5 11c3.567 0 4.183-1.241 4.183-1.241v-.201a1.67 1.67 0 0 1-.005-.18Z" fill="#93B474"/></svg>
